X: 506
T: Horizonto
R: Jig
C: Paul James
M: 6/8
L: 1/8
K: Dm
|:"Dm"ABA GAF |"Am"GEF DEC|"Dm" A,2D DEF|"Am" E2C CDE|"Gm" F2F FGF| "Am"EDE CDE|
"Bb" FED EDC|"Am" A,B,C D3:||: "Gm"B,2D DEF| B,2D DEF| "Dm"A,2D DEF| A,2D DEF| 
"Gm"B,2D DEF| B,2D DEF |1 "Dm"ABA GAF| "Am"GEF DEC:|2 "G"=B,2D DEF| B,2D DEF||
"Gm" _B2A2 GF| "C"E3-EFG| "F"A2G2FE| "Bb"D2D DEF| "Gm"JG2F2 ED| "A"^C3- CDE| F2G2^G2| A6|
"Gm"B2c2B2| "C"E3 EFG| "F"A2B2A2| "Bb"D3 DEF| "Gm"G2F2ED| "A"^C3 CDE| "Dm"FED "Am"EDC| "Dm"D3z3|]

%%newpage
%%textfont * 14
%%begintext justify
%%32 Bar Walzes
%%endtext
